!!!COM: Palestrina, Giovanni Perluigi da
!!!OPR: Missa Quem dicunt homines
!!!OTL: Agnus II
**kern	**kern	**kern	**kern	**kern
*Ibass	*Itenor	*Icalto	*Icalto	*Icant
!Bassus	!Tenor	!Altus 2	!Altus 1	!Cantus
*clefF4	*clefGv2	*clefG2	*clefG2	*clefG2
*k[]	*k[]	*k[]	*k[]	*k[]
*C:ion	*C:ion	*C:ion	*C:ion	*C:ion
*M4/2	*M4/2	*M4/2	*M4/2	*M4/2
=1	=1	=1	=1	=1
0r	0r	0r	1r	1g
.	.	.	1c	1cc
=2	=2	=2	=2	=2
0r	0r	0r	1f	2.cc
.	.	.	.	4b
.	.	.	2.f	4a
.	.	.	.	4g
.	.	.	.	2a
.	.	.	4e	.
=3	=3	=3	=3	=3
1r	1G	0r	4d	1b
.	.	.	4c	.
.	.	.	2d	.
1C	1c	.	1e	2g
.	.	.	.	2g
=4	=4	=4	=4	=4
1F	2.c	0r	2.A	2a
.	.	.	.	2.cc
.	4B	.	4B	.
2.F	4A	.	1c	.
.	4G	.	.	4b
.	2A	.	.	4a
4E	.	.	.	4g
=5	=5	=5	=5	=5
4D	1B	1d	2r	4f
4C	.	.	.	4e
2D	.	.	2d	2f
2E	2G	1g	2B	1e
2C	[2c	.	2c	.
=6	=6	=6	=6	=6
1G	2c]	2.g	2d	1d
.	2B	.	1G	.
.	.	4f	.	.
1C	2.c	4e	.	1g
.	.	4d	.	.
.	.	2e	[2c	.
.	4B	.	.	.
=7	=7	=7	=7	=7
1F	4A	1f	2c]	1a
.	4G	.	.	.
.	2A	.	2.d	.
2G	2B	2d	.	1g
.	.	.	4B	.
2C	2c	[2g	2e	.
=8	=8	=8	=8	=8
1D	1A	2g]	2.d	2r
.	.	2f#	.	1dd
.	.	.	4c	.
1G	[1G	2.g	4B	.
.	.	.	4G	.
.	.	.	[2g	2b
.	.	4f	.	.
=9	=9	=9	=9	=9
1C	1G]	4e	4g]	2.cc
.	.	4d	4f	.
.	.	2e	2.e	.
.	.	.	.	4b
2D	1r	2f	.	2a
.	.	.	4d	.
2G	.	2g	[2d	2b-
=10	=10	=10	=10	=10
1A	0r	1e	2d]	1.a
.	.	.	2c	.
1D	.	[1d	4f	.
.	.	.	4e	.
.	.	.	4d	2f#
.	.	.	4c	.
=11	=11	=11	=11	=11
1G	2r	1d]	1B	1g
.	2G	.	.	.
2F	2A	1r	2r	2c
2E	[2c	.	2c	2e
=12	=12	=12	=12	=12
1D	2c]	0r	2d	2.f
.	2B	.	1f	.
.	.	.	.	4g
1C	1c	.	.	4a
.	.	.	.	4b
.	.	.	2e	2cc
=13	=13	=13	=13	=13
1r	1d	2r	1f	2.a
.	.	2d	.	.
.	.	.	.	4b
2r	2c	2e	1g	2cc
2G	2B	[2g	.	2dd
=14	=14	=14	=14	=14
2A	1A	2g]	2.c	1cc
1c	.	2f#	.	.
.	.	.	4d	.
.	1G	1g	2e	2r
2B	.	.	2d	2dd
=15	=15	=15	=15	=15
2A	0r	1a	2.f	2cc
2F	.	.	.	2a
.	.	.	4e	.
1G	.	2g	4d	1b-
.	.	.	4c	.
.	.	2f	[2d	.
=16	=16	=16	=16	=16
2.A	0r	1e	2d]	1.a
.	.	.	2c	.
4G	.	.	.	.
2F	.	1d	2A	.
2G	.	.	[2B	2d
=17	=17	=17	=17	=17
1E	2r	0r	4B]	2e
.	.	.	4A	.
.	2G	.	2B	1g
1A	2A	.	1c	.
.	[2c	.	.	2f#
=18	=18	=18	=18	=18
1G	2c]	0r	2r	1.g
.	2B	.	2d	.
2C	1c	.	2e	.
2E	.	.	[2g	2e
=19	=19	=19	=19	=19
1D	1d	2r	2g]	2a
.	.	2d	2f#	2a
1r	2c	2e	1g	2r
.	2B	[2g	.	2g
=20	=20	=20	=20	=20
1r	1A	2g]	1c	2a
.	.	2f#	.	1cc
2r	1G	1g	1d	.
2G	.	.	.	2b
=21	=21	=21	=21	=21
1F	0r	1a	2.f	2cc
.	.	.	.	2dd
.	.	.	4e	.
2G	.	2g	4d	2b
.	.	.	4c	.
2D	.	2f	2d	[2a
=22	=22	=22	=22	=22
2E	0r	1e	2B	4a]
.	.	.	.	4g
2C	.	.	2c	1g
1D	.	1d	1A	.
.	.	.	.	2f#
=23	=23	=23	=23	=23
2G	2r	0r	2G	1g
2E	2G	.	2g	.
2F	2A	.	2f	1r
2G	2B	.	2d	.
=24	=24	=24	=24	=24
1C	4c	0r	4e	0r
.	4B	.	4d	.
.	4c	.	4e	.
.	4d	.	4f	.
1C	2e	.	2g	.
.	[2c	.	2e	.
=25	=25	=25	=25	=25
1G	2c]	2r	1d	2r
.	2B	2d	.	2dd
1r	1A	2e	2r	2cc
.	.	2f#	2c	2a
=26	=26	=26	=26	=26
1r	0G	4g	1.d	4b
.	.	4f#	.	4a
.	.	4g	.	4b
.	.	4a	.	4cc
2r	.	2b	.	2dd
2G	.	[2g	[2e	2b
=27	=27	=27	=27	=27
2A	0r	2g]	2e]	2cc
2B	.	2f	2d	2.dd
1c	.	1e	1g	.
.	.	.	.	4cc
.	.	.	.	[2cc
=28	=28	=28	=28	=28
2.G	2r	0d	2g	2cc]
.	2G	.	2g	2b
8F	.	.	.	.
8E	.	.	.	.
1D	2A	.	2f	1dd
.	2B	.	2d	.
=29	=29	=29	=29	=29
1C	1c	0r	4e	2r
.	.	.	4d	.
.	.	.	4c	2g
.	.	.	4B	.
2r	2r	.	2A	2f
2E	2G	.	[2c	2e
=30	=30	=30	=30	=30
2F	2A	2r	2c]	1d
2G	2B	2d	2B	.
2C	2c	2e	1A	1c
[2c	2A	2f	.	.
=31	=31	=31	=31	=31
2c]	2G	1g	0r	1d
2B	2G	.	.	.
2c	2A	2r	.	2c
2B	2B	2d	.	2g
=32	=32	=32	=32	=32
2A	4c	2e	2r	2.a
.	4B	.	.	.
2F	4c	2f	1c	.
.	4d	.	.	4b
1C	2e	2g	.	1cc
.	[2c	2e	2c	.
=33	=33	=33	=33	=33
2r	2c]	2d	1.G	1dd
2G	2B	2d	.	.
2C	1c	2e	.	1cc
2F	.	2f	2A	.
=34	=34	=34	=34	=34
1C	1c	4g	1e	1r
.	.	4f#	.	.
.	.	4g	.	.
.	.	4a	.	.
1G	2r	2b	1d	1g
.	2B	[2g	.	.
=35	=35	=35	=35	=35
1D	1d	2g]	2r	2a
.	.	2f#	2d	2b
2C	2.e	1g	2G	4cc
.	.	.	.	4b
[2C	.	.	[2c	4cc
.	4d	.	.	4dd
=36	=36	=36	=36	=36
2C]	2c	[0g	2c]	2ee
2G	2B	.	2d	2.dd
2C	1c	.	1e	.
.	.	.	.	4cc
2C	.	.	.	[2cc
=37	=37	=37	=37	=37
0G	0d	1g_	2d	2cc]
.	.	.	2.g	4b
.	.	.	.	4a
.	.	1g_	.	1b
.	.	.	4f	.
.	.	.	2d	.
=38	=38	=38	=38	=38
0C	0c	0g]	0e	0cc
==	==	==	==	==
*-	*-	*-	*-	*-
!!!CDT: 1525/^1526/-1594/2/2
!!!OCY: Italia
!!!AGN: Mass (Parody)
!!!AST: renaissance, vocal
!!!ASW: Motet 1532 (Richafort)
!!!PWK: Masses, Book 8
!!!RNB: Cadence finals: G
!!!YOR: Le Opere Complete, v. 24, p. 1
!!!YOO: Rome, Italy: Fratelli Scalera
!!!END: 1992//
!!!EED: John Miller
!!!YEC: Copyright 2000, John Miller
!!!YEN: United States of America
!!!YEM: Rights to all derivative electronic formats reserved.
!!!YEM: Refer to licensing agreement for further details.
!!!YEM: This file must be accompanied by the licensing agreement.
!!!YEM: A copy of the licensing agreement may be found at http://www.music-cog.ohio-state.edu/HumdrumDatabases/Palestrina/license.txt
!!!EMD: converted to Humdrum by Bret Aarden
